X: 36381
T: Sean Redmond's
R: hornpipe
M: 4/4
K: Amajor
c3 B|:AA,CE Acec|defg agaf|eAce fedc|BEGB edcB|
AA,CE Acec|defg agaf|eagf edcB|1 A2 GB A2 cA:|2 A2 GB A2 (3Bcd||
|:eAce fAdf|eAce a2 gf|eAce fedc|BEGB edcd|
e2 ce f2 ^df|e2 ce a2 gf|eagf edcB|1 A2 GB A2 (3Bcd:|2 A2 GB A2 cc||

